Newaita-dark/.places-mint/24/folder-images.svg

<?xml version="1.0" encoding="UTF-8"?>
<svg xmlns="http://www.w3.org/2000/svg" xmlns:xlink="http://www.w3.org/1999/xlink" width="24px" height="24px" viewBox="0 0 24 24" version="1.1">
<defs>
<linearGradient id="linear0" gradientUnits="userSpaceOnUse" x1="254" y1="233.5" x2="254" y2="254.666672" gradientTransform="matrix(0.0468795,0,0,0.0468795,-0.0000028613,10.07909)">
<stop offset="0" style="stop-color:rgb(0%,0%,0%);stop-opacity:0.27451;"/>
<stop offset="1" style="stop-color:rgb(0%,0%,0%);stop-opacity:0;"/>
</linearGradient>
<radialGradient id="radial0" gradientUnits="userSpaceOnUse" cx="450.908936" cy="189.579361" fx="450.908936" fy="189.579361" r="21.166656" gradientTransform="matrix(0.000000130628,-0.0585994,-0.105479,-0.0000000761539,40.58641,47.696501)">
<stop offset="0" style="stop-color:rgb(0%,0%,0%);stop-opacity:0.313726;"/>
<stop offset="0.222222" style="stop-color:rgb(0%,0%,0%);stop-opacity:0.27451;"/>
<stop offset="1" style="stop-color:rgb(0%,0%,0%);stop-opacity:0;"/>
</radialGradient>
<radialGradient id="radial1" gradientUnits="userSpaceOnUse" cx="450.908936" cy="189.579361" fx="450.908936" fy="189.579361" r="21.166656" gradientTransform="matrix(-0.000000130628,0.0585994,0.105479,0.0000000761539,-16.771633,-5.645608)">
<stop offset="0" style="stop-color:rgb(0%,0%,0%);stop-opacity:0.313726;"/>
<stop offset="0.222222" style="stop-color:rgb(0%,0%,0%);stop-opacity:0.27451;"/>
<stop offset="1" style="stop-color:rgb(0%,0%,0%);stop-opacity:0;"/>
</radialGradient>
<radialGradient id="radial2" gradientUnits="userSpaceOnUse" cx="450.908936" cy="189.579361" fx="450.908936" fy="189.579361" r="21.166656" gradientTransform="matrix(-0.000000130628,-0.0585994,0.105479,-0.0000000761539,-16.771633,47.696501)">
<stop offset="0" style="stop-color:rgb(0%,0%,0%);stop-opacity:0.313726;"/>
<stop offset="0.222222" style="stop-color:rgb(0%,0%,0%);stop-opacity:0.27451;"/>
<stop offset="1" style="stop-color:rgb(0%,0%,0%);stop-opacity:0;"/>
</radialGradient>
<radialGradient id="radial3" gradientUnits="userSpaceOnUse" cx="450.908936" cy="189.579361" fx="450.908936" fy="189.579361" r="21.166656" gradientTransform="matrix(0.000000130628,0.0585994,-0.105479,0.0000000761539,40.586408,-5.645608)">
<stop offset="0" style="stop-color:rgb(0%,0%,0%);stop-opacity:0.313726;"/>
<stop offset="0.222222" style="stop-color:rgb(0%,0%,0%);stop-opacity:0.27451;"/>
<stop offset="1" style="stop-color:rgb(0%,0%,0%);stop-opacity:0;"/>
</radialGradient>
<linearGradient id="linear1" gradientUnits="userSpaceOnUse" x1="254" y1="-147.5" x2="254" y2="-31.083334" gradientTransform="matrix(0.0468795,0,0,0.0468795,0.000000937315,10.079086)">
<stop offset="0" style="stop-color:rgb(64.313728%,64.313728%,64.313728%);stop-opacity:0;"/>
<stop offset="1" style="stop-color:rgb(100%,100%,100%);stop-opacity:0.196078;"/>
</linearGradient>
<linearGradient id="linear2" gradientUnits="userSpaceOnUse" x1="254" y1="233.5" x2="254" y2="-105.166656" gradientTransform="matrix(0.0468795,0,0,0.0468795,-0.0000013593,10.079087)">
<stop offset="0" style="stop-color:rgb(34.509805%,34.509805%,34.509805%);stop-opacity:0;"/>
<stop offset="1" style="stop-color:rgb(98.039216%,98.039216%,98.039216%);stop-opacity:0.196078;"/>
</linearGradient>
</defs>
<g id="surface1">
<path style=" stroke:none;fill-rule:nonzero;fill:url(#linear0);" d="M 2.976562 21.027344 L 20.839844 21.027344 L 20.839844 22.019531 L 2.976562 22.019531 Z M 2.976562 21.027344 "/>
<path style=" stroke:none;fill-rule:nonzero;fill:url(#radial0);" d="M 20.839844 21.027344 L 22.824219 21.027344 L 22.824219 20.03125 L 20.839844 20.03125 Z M 20.839844 21.027344 "/>
<path style=" stroke:none;fill-rule:nonzero;fill:url(#radial1);" d="M 2.976562 21.027344 L 0.992188 21.027344 L 0.992188 22.019531 L 2.976562 22.019531 Z M 2.976562 21.027344 "/>
<path style=" stroke:none;fill-rule:nonzero;fill:url(#radial2);" d="M 2.976562 21.027344 L 0.992188 21.027344 L 0.992188 20.03125 L 2.976562 20.03125 Z M 2.976562 21.027344 "/>
<path style=" stroke:none;fill-rule:nonzero;fill:url(#radial3);" d="M 20.839844 21.027344 L 22.824219 21.027344 L 22.824219 22.019531 L 20.839844 22.019531 Z M 20.839844 21.027344 "/>
<path style=" stroke:none;fill-rule:nonzero;fill:rgb(61.176473%,80.000001%,39.607844%);fill-opacity:1;" d="M 5.457031 3.164062 L 21.582031 3.164062 C 22.128906 3.164062 22.574219 3.609375 22.574219 4.15625 L 22.574219 7.878906 C 22.574219 8.425781 22.128906 8.871094 21.582031 8.871094 L 5.457031 8.871094 C 4.910156 8.871094 4.464844 8.425781 4.464844 7.878906 L 4.464844 4.15625 C 4.464844 3.609375 4.910156 3.164062 5.457031 3.164062 Z M 5.457031 3.164062 "/>
<path style=" stroke:none;fill-rule:nonzero;fill:url(#linear1);" d="M 5.457031 3.164062 L 21.582031 3.164062 C 22.128906 3.164062 22.574219 3.609375 22.574219 4.15625 L 22.574219 7.878906 C 22.574219 8.425781 22.128906 8.871094 21.582031 8.871094 L 5.457031 8.871094 C 4.910156 8.871094 4.464844 8.425781 4.464844 7.878906 L 4.464844 4.15625 C 4.464844 3.609375 4.910156 3.164062 5.457031 3.164062 Z M 5.457031 3.164062 "/>
<path style=" stroke:none;fill-rule:nonzero;fill:rgb(100%,100%,100%);fill-opacity:0.392157;" d="M 5.457031 3.222656 C 4.90625 3.222656 4.464844 3.667969 4.464844 4.214844 L 4.464844 4.339844 C 4.464844 3.789062 4.90625 3.347656 5.457031 3.347656 L 21.582031 3.347656 C 22.132812 3.347656 22.574219 3.789062 22.574219 4.339844 L 22.574219 4.214844 C 22.574219 3.667969 22.132812 3.222656 21.582031 3.222656 Z M 5.457031 3.222656 "/>
<path style=" stroke:none;fill-rule:nonzero;fill:rgb(12.941177%,12.941177%,12.941177%);fill-opacity:1;" d="M 5.457031 3.09375 C 4.871094 3.09375 4.394531 3.570312 4.394531 4.15625 L 4.394531 7.878906 C 4.394531 8.464844 4.871094 8.941406 5.457031 8.941406 L 21.582031 8.941406 C 22.167969 8.941406 22.644531 8.464844 22.644531 7.878906 L 22.644531 4.15625 C 22.644531 3.570312 22.167969 3.09375 21.582031 3.09375 Z M 5.457031 3.234375 L 21.582031 3.234375 C 22.09375 3.234375 22.503906 3.644531 22.503906 4.15625 L 22.503906 7.878906 C 22.503906 8.390625 22.09375 8.800781 21.582031 8.800781 L 5.457031 8.800781 C 4.945312 8.800781 4.535156 8.390625 4.535156 7.878906 L 4.535156 4.15625 C 4.535156 3.644531 4.945312 3.234375 5.457031 3.234375 Z M 5.457031 3.234375 "/>
<path style=" stroke:none;fill-rule:nonzero;fill:rgb(68.235296%,83.529413%,50.588238%);fill-opacity:1;" d="M 1.984375 5.148438 C 1.433594 5.148438 0.992188 5.589844 0.992188 6.140625 L 0.992188 20.03125 C 0.992188 20.582031 1.433594 21.027344 1.984375 21.027344 L 21.832031 21.027344 C 22.378906 21.027344 22.824219 20.582031 22.824219 20.03125 L 22.824219 7.628906 L 9.425781 7.628906 C 8.878906 7.628906 8.433594 7.1875 8.433594 6.636719 L 8.433594 5.148438 Z M 1.984375 5.148438 "/>
<path style=" stroke:none;fill-rule:nonzero;fill:url(#linear2);" d="M 1.984375 5.148438 C 1.433594 5.148438 0.992188 5.589844 0.992188 6.140625 L 0.992188 20.03125 C 0.992188 20.582031 1.433594 21.027344 1.984375 21.027344 L 21.832031 21.027344 C 22.378906 21.027344 22.824219 20.582031 22.824219 20.03125 L 22.824219 7.628906 L 9.425781 7.628906 C 8.878906 7.628906 8.433594 7.1875 8.433594 6.636719 L 8.433594 5.148438 Z M 1.984375 5.148438 "/>
<path style=" stroke:none;fill-rule:nonzero;fill:rgb(0%,0%,0%);fill-opacity:0.196078;" d="M 1.984375 21.027344 C 1.433594 21.027344 0.992188 20.582031 0.992188 20.03125 L 0.992188 19.910156 C 0.992188 20.457031 1.433594 20.902344 1.984375 20.902344 L 21.832031 20.902344 C 22.378906 20.902344 22.824219 20.457031 22.824219 19.910156 L 22.824219 20.03125 C 22.824219 20.582031 22.378906 21.027344 21.832031 21.027344 Z M 1.984375 21.027344 "/>
<path style=" stroke:none;fill-rule:nonzero;fill:rgb(100%,100%,100%);fill-opacity:0.392157;" d="M 1.984375 5.210938 C 1.433594 5.210938 0.992188 5.652344 0.992188 6.203125 L 0.992188 6.328125 C 0.992188 5.777344 1.433594 5.335938 1.984375 5.335938 L 8.433594 5.335938 L 8.433594 5.210938 Z M 1.984375 5.210938 "/>
<path style=" stroke:none;fill-rule:nonzero;fill:rgb(100%,100%,100%);fill-opacity:0.392157;" d="M 9.363281 7.753906 C 8.816406 7.753906 8.371094 7.3125 8.371094 6.761719 L 8.371094 6.636719 C 8.371094 7.1875 8.816406 7.628906 9.363281 7.628906 L 22.824219 7.628906 L 22.824219 7.753906 Z M 9.363281 7.753906 "/>
<path style=" stroke:none;fill-rule:nonzero;fill:rgb(12.941177%,12.941177%,12.941177%);fill-opacity:1;" d="M 1.984375 5.078125 C 1.398438 5.078125 0.921875 5.554688 0.921875 6.140625 L 0.921875 20.03125 C 0.921875 20.621094 1.398438 21.097656 1.984375 21.097656 L 21.832031 21.097656 C 22.417969 21.097656 22.894531 20.621094 22.894531 20.03125 L 22.894531 7.488281 L 9.425781 7.488281 C 8.914062 7.488281 8.503906 7.078125 8.503906 6.566406 L 8.503906 5.078125 Z M 1.984375 5.21875 L 8.363281 5.21875 L 8.363281 6.566406 C 8.363281 7.15625 8.839844 7.628906 9.425781 7.628906 L 22.753906 7.628906 L 22.753906 20.03125 C 22.753906 20.546875 22.34375 20.957031 21.832031 20.957031 L 1.984375 20.957031 C 1.472656 20.957031 1.0625 20.546875 1.0625 20.03125 L 1.0625 6.140625 C 1.0625 5.628906 1.472656 5.21875 1.984375 5.21875 Z M 1.984375 5.21875 "/>
<path style=" stroke:none;fill-rule:nonzero;fill:rgb(54.509807%,76.47059%,29.019609%);fill-opacity:1;" d="M 10.417969 9.542969 C 9.871094 9.542969 9.425781 9.988281 9.425781 10.535156 C 9.425781 11.085938 9.871094 11.527344 10.417969 11.527344 C 10.96875 11.527344 11.410156 11.085938 11.410156 10.535156 C 11.410156 9.988281 10.96875 9.542969 10.417969 9.542969 Z M 13.394531 11.527344 C 12.15625 11.527344 12.15625 15 11.410156 15 C 10.667969 15 10.417969 13.015625 9.921875 13.015625 C 9.179688 13.015625 8.433594 15.488281 8.433594 16.984375 C 8.433594 17.261719 8.65625 17.480469 8.929688 17.480469 L 14.882812 17.480469 C 15.160156 17.480469 15.378906 17.261719 15.378906 16.984375 C 15.417969 15.042969 14.636719 11.527344 13.394531 11.527344 Z M 13.394531 11.527344 "/>
<path style=" stroke:none;fill-rule:nonzero;fill:rgb(100%,100%,100%);fill-opacity:0.392157;" d="M 9.429688 10.636719 C 9.429688 10.667969 9.425781 10.699219 9.425781 10.730469 C 9.425781 11.28125 9.871094 11.722656 10.417969 11.722656 C 10.96875 11.722656 11.410156 11.28125 11.410156 10.730469 C 11.410156 10.699219 11.410156 10.667969 11.40625 10.636719 C 11.359375 11.140625 10.9375 11.53125 10.417969 11.53125 C 9.902344 11.53125 9.480469 11.140625 9.429688 10.636719 Z M 15.378906 16.949219 C 15.378906 16.964844 15.378906 16.976562 15.378906 16.988281 C 15.378906 17.265625 15.160156 17.484375 14.882812 17.484375 L 8.929688 17.484375 C 8.671875 17.484375 8.460938 17.289062 8.4375 17.035156 C 8.433594 17.085938 8.433594 17.132812 8.433594 17.179688 C 8.433594 17.453125 8.65625 17.675781 8.929688 17.675781 L 14.882812 17.675781 C 15.160156 17.675781 15.378906 17.453125 15.378906 17.179688 C 15.382812 17.105469 15.382812 17.03125 15.378906 16.949219 Z M 15.378906 16.949219 "/>
<path style=" stroke:none;fill-rule:nonzero;fill:rgb(0%,0%,0%);fill-opacity:0.235294;" d="M 10.417969 9.542969 C 9.871094 9.542969 9.425781 9.988281 9.425781 10.535156 C 9.425781 10.570312 9.429688 10.601562 9.429688 10.632812 C 9.480469 10.128906 9.902344 9.738281 10.417969 9.738281 C 10.9375 9.738281 11.359375 10.128906 11.40625 10.632812 C 11.410156 10.601562 11.410156 10.570312 11.410156 10.535156 C 11.410156 9.988281 10.96875 9.542969 10.417969 9.542969 Z M 13.394531 11.527344 C 12.15625 11.527344 12.15625 15 11.410156 15 C 10.667969 15 10.417969 13.015625 9.921875 13.015625 C 9.179688 13.015625 8.433594 15.488281 8.433594 16.984375 C 8.433594 17 8.433594 17.019531 8.4375 17.035156 C 8.480469 15.527344 9.203125 13.210938 9.921875 13.210938 C 10.417969 13.210938 10.667969 15.195312 11.410156 15.195312 C 12.15625 15.195312 12.15625 11.722656 13.394531 11.722656 C 14.589844 11.722656 15.355469 14.972656 15.378906 16.949219 C 15.40625 15 14.628906 11.527344 13.394531 11.527344 Z M 13.394531 11.527344 "/>
<path style=" stroke:none;fill-rule:nonzero;fill:rgb(12.941177%,12.941177%,12.941177%);fill-opacity:1;" d="M 10.417969 9.472656 C 9.832031 9.472656 9.355469 9.949219 9.355469 10.535156 C 9.355469 11.125 9.832031 11.597656 10.417969 11.597656 C 11.007812 11.597656 11.480469 11.125 11.480469 10.535156 C 11.480469 9.949219 11.007812 9.472656 10.417969 9.472656 Z M 10.417969 9.613281 C 10.929688 9.613281 11.339844 10.023438 11.339844 10.535156 C 11.339844 11.046875 10.929688 11.457031 10.417969 11.457031 C 9.90625 11.457031 9.496094 11.046875 9.496094 10.535156 C 9.496094 10.023438 9.90625 9.613281 10.417969 9.613281 Z M 13.394531 11.457031 C 13.054688 11.457031 12.796875 11.699219 12.605469 12.035156 C 12.414062 12.371094 12.273438 12.808594 12.148438 13.246094 C 12.027344 13.679688 11.917969 14.113281 11.796875 14.433594 C 11.734375 14.59375 11.671875 14.722656 11.605469 14.808594 C 11.539062 14.894531 11.476562 14.929688 11.410156 14.929688 C 11.257812 14.929688 11.121094 14.828125 10.992188 14.648438 C 10.863281 14.472656 10.746094 14.226562 10.636719 13.980469 C 10.53125 13.734375 10.429688 13.484375 10.320312 13.292969 C 10.265625 13.195312 10.210938 13.113281 10.148438 13.050781 C 10.085938 12.988281 10.007812 12.945312 9.921875 12.945312 C 9.699219 12.945312 9.5 13.125 9.316406 13.386719 C 9.136719 13.652344 8.972656 14.011719 8.832031 14.417969 C 8.550781 15.230469 8.363281 16.226562 8.363281 16.984375 C 8.363281 17.296875 8.617188 17.550781 8.929688 17.550781 L 14.882812 17.550781 C 15.195312 17.550781 15.449219 17.296875 15.449219 16.984375 C 15.46875 16.003906 15.28125 14.636719 14.933594 13.507812 C 14.761719 12.941406 14.546875 12.4375 14.292969 12.066406 C 14.039062 11.699219 13.738281 11.457031 13.394531 11.457031 Z M 13.394531 11.597656 C 13.671875 11.597656 13.9375 11.796875 14.175781 12.148438 C 14.417969 12.5 14.628906 12.992188 14.800781 13.550781 C 15.144531 14.664062 15.328125 16.023438 15.308594 16.984375 C 15.308594 17.222656 15.121094 17.410156 14.882812 17.410156 L 8.929688 17.410156 C 8.695312 17.410156 8.503906 17.222656 8.503906 16.984375 C 8.503906 16.25 8.691406 15.261719 8.964844 14.464844 C 9.105469 14.066406 9.265625 13.714844 9.433594 13.464844 C 9.601562 13.21875 9.777344 13.085938 9.921875 13.085938 C 9.960938 13.085938 10 13.105469 10.050781 13.152344 C 10.097656 13.199219 10.148438 13.273438 10.199219 13.363281 C 10.300781 13.539062 10.402344 13.789062 10.507812 14.039062 C 10.617188 14.285156 10.734375 14.539062 10.878906 14.734375 C 11.019531 14.925781 11.195312 15.070312 11.410156 15.070312 C 11.53125 15.070312 11.632812 15 11.714844 14.894531 C 11.796875 14.789062 11.863281 14.648438 11.925781 14.484375 C 12.054688 14.152344 12.160156 13.71875 12.285156 13.285156 C 12.410156 12.851562 12.546875 12.421875 12.726562 12.105469 C 12.910156 11.789062 13.117188 11.597656 13.394531 11.597656 Z M 13.394531 11.597656 "/>
</g>
</svg>

<svg xmlns="http://www.w3.org/2000/svg" width="24" height="24"><defs><linearGradient id="a" gradientUnits="userSpaceOnUse" x1="254" y1="233.5" x2="254" y2="254.667" gradientTransform="matrix(.04688 0 0 .04688 0 10.08)"><stop offset="0" stop-opacity=".275"/><stop offset="1" stop-opacity="0"/></linearGradient><radialGradient id="b" gradientUnits="userSpaceOnUse" cx="450.909" cy="189.579" fx="450.909" fy="189.579" r="21.167" gradientTransform="matrix(0 -.0586 -.10548 0 40.586 47.697)"><stop offset="0" stop-opacity=".314"/><stop offset=".222" stop-opacity=".275"/><stop offset="1" stop-opacity="0"/></radialGradient><radialGradient id="c" gradientUnits="userSpaceOnUse" cx="450.909" cy="189.579" fx="450.909" fy="189.579" r="21.167" gradientTransform="matrix(0 .0586 .10548 0 -16.772 -5.646)"><stop offset="0" stop-opacity=".314"/><stop offset=".222" stop-opacity=".275"/><stop offset="1" stop-opacity="0"/></radialGradient><radialGradient id="d" gradientUnits="userSpaceOnUse" cx="450.909" cy="189.579" fx="450.909" fy="189.579" r="21.167" gradientTransform="matrix(0 -.0586 .10548 0 -16.772 47.697)"><stop offset="0" stop-opacity=".314"/><stop offset=".222" stop-opacity=".275"/><stop offset="1" stop-opacity="0"/></radialGradient><radialGradient id="e" gradientUnits="userSpaceOnUse" cx="450.909" cy="189.579" fx="450.909" fy="189.579" r="21.167" gradientTransform="matrix(0 .0586 -.10548 0 40.586 -5.646)"><stop offset="0" stop-opacity=".314"/><stop offset=".222" stop-opacity=".275"/><stop offset="1" stop-opacity="0"/></radialGradient><linearGradient id="f" gradientUnits="userSpaceOnUse" x1="254" y1="-147.5" x2="254" y2="-31.083" gradientTransform="matrix(.04688 0 0 .04688 0 10.08)"><stop offset="0" stop-color="#a4a4a4" stop-opacity="0"/><stop offset="1" stop-color="#fff" stop-opacity=".196"/></linearGradient><linearGradient id="g" gradientUnits="userSpaceOnUse" x1="254" y1="233.5" x2="254" y2="-105.167" gradientTransform="matrix(.04688 0 0 .04688 0 10.08)"><stop offset="0" stop-color="#585858" stop-opacity="0"/><stop offset="1" stop-color="#fafafa" stop-opacity=".196"/></linearGradient><linearGradient id="h" gradientUnits="userSpaceOnUse" x1="254" y1="-147.5" x2="254" y2="233.5" gradientTransform="matrix(.04688 0 0 .04688 0 10.08)"><stop offset="0" stop-color="#a4a4a4" stop-opacity="0"/><stop offset="1" stop-color="#fff" stop-opacity=".196"/></linearGradient></defs><path d="M2.977 21.027H20.84v.993H2.977zm0 0" fill="url(#a)"/><path d="M20.84 21.027h1.984v-.996H20.84zm0 0" fill="url(#b)"/><path d="M2.977 21.027H.992v.993h1.985zm0 0" fill="url(#c)"/><path d="M2.977 21.027H.992v-.996h1.985zm0 0" fill="url(#d)"/><path d="M20.84 21.027h1.984v.993H20.84zm0 0" fill="url(#e)"/><path d="M5.457 3.164h16.125c.547 0 .992.445.992.992V7.88a.994.994 0 0 1-.992.992H5.457a.994.994 0 0 1-.992-.992V4.156c0-.547.445-.992.992-.992zm0 0" fill="#7cb342"/><path d="M5.457 3.164h16.125c.547 0 .992.445.992.992V7.88a.994.994 0 0 1-.992.992H5.457a.994.994 0 0 1-.992-.992V4.156c0-.547.445-.992.992-.992zm0 0" fill="url(#f)"/><path d="M5.457 3.164a.989.989 0 0 0-.992.992v.125c0-.55.441-.992.992-.992h16.125c.55 0 .992.441.992.992v-.125a.989.989 0 0 0-.992-.992zm0 0" fill="#e6e6e6" fill-opacity=".588"/><path d="M5.457 3.094c-.586 0-1.062.476-1.062 1.062V7.88c0 .586.476 1.062 1.062 1.062h16.125c.586 0 1.063-.476 1.063-1.062V4.156c0-.586-.477-1.062-1.063-1.062zm0 .14h16.125c.512 0 .922.41.922.922V7.88c0 .512-.41.922-.922.922H5.457a.919.919 0 0 1-.922-.922V4.156c0-.511.41-.922.922-.922zm0 0" fill="#212121"/><path d="M1.984 5.148a.989.989 0 0 0-.992.993v13.89c0 .551.442.996.992.996h19.848a.994.994 0 0 0 .992-.996V7.63H9.426a.991.991 0 0 1-.992-.992V5.148zm0 0" fill="#9ccc65"/><path d="M1.984 5.148a.989.989 0 0 0-.992.993v13.89c0 .551.442.996.992.996h19.848a.994.994 0 0 0 .992-.996V7.63H9.426a.991.991 0 0 1-.992-.992V5.148zm0 0" fill="url(#g)"/><path d="M1.984 21.027a.992.992 0 0 1-.992-.996v-.12c0 .546.442.991.992.991h19.848a.994.994 0 0 0 .992-.992v.121c0 .551-.445.996-.992.996zm0 0" fill-opacity=".196"/><path d="M1.984 5.148a.989.989 0 0 0-.992.993v.125c0-.551.442-.993.992-.993h6.45v-.125zm0 0M9.363 7.691a.991.991 0 0 1-.992-.992v-.125c0 .551.445.996.992.992h13.461v.125zm0 0" fill="#e6e6e6" fill-opacity=".937"/><path d="M1.984 5.078c-.586 0-1.062.477-1.062 1.063v13.89c0 .59.476 1.067 1.062 1.067h19.848c.586 0 1.063-.477 1.063-1.067V7.488H9.425a.919.919 0 0 1-.921-.922V5.078zm0 .14h6.38v1.348c0 .59.476 1.063 1.062 1.063h13.328V20.03a.92.92 0 0 1-.922.926H1.984a.92.92 0 0 1-.921-.926V6.141c0-.512.41-.922.921-.922zm0 0" fill="#212121"/><path d="M10.418 9.543a.991.991 0 1 0 0 1.984c.55 0 .992-.441.992-.992a.991.991 0 0 0-.992-.992zm2.977 1.984c-1.239 0-1.239 3.473-1.985 3.473-.742 0-.992-1.984-1.488-1.984-.742 0-1.488 2.472-1.488 3.968 0 .278.222.496.496.496h5.953a.492.492 0 0 0 .496-.496c.039-1.941-.742-5.457-1.984-5.457zm0 0" fill="#7cb342"/><path d="M10.418 9.543a.991.991 0 1 0 0 1.984c.55 0 .992-.441.992-.992a.991.991 0 0 0-.992-.992zm2.977 1.984c-1.239 0-1.239 3.473-1.985 3.473-.742 0-.992-1.984-1.488-1.984-.742 0-1.488 2.472-1.488 3.968 0 .278.222.496.496.496h5.953a.492.492 0 0 0 .496-.496c.039-1.941-.742-5.457-1.984-5.457zm0 0" fill="url(#h)"/><path d="M10.418 9.473a1.064 1.064 0 1 0 .002 2.127 1.064 1.064 0 0 0-.002-2.127zm0 .14c.512 0 .922.41.922.922s-.41.922-.922.922a.919.919 0 0 1-.922-.922c0-.512.41-.922.922-.922zm2.977 1.844c-.34 0-.598.242-.79.578-.19.336-.332.774-.457 1.211-.12.434-.23.867-.351 1.188-.063.16-.125.289-.192.375-.066.086-.128.12-.195.12-.152 0-.289-.1-.418-.28-.129-.176-.246-.422-.355-.669-.106-.246-.207-.496-.317-.687a1.101 1.101 0 0 0-.172-.242.325.325 0 0 0-.226-.106c-.223 0-.422.18-.606.442-.18.265-.343.625-.484 1.031-.281.812-.469 1.809-.469 2.566 0 .313.254.567.567.567h5.953a.567.567 0 0 0 .566-.567c.02-.98-.168-2.347-.515-3.476-.172-.567-.387-1.07-.641-1.442-.254-.367-.555-.609-.898-.609zm0 .14c.277 0 .543.2.78.551.243.352.454.844.626 1.403.344 1.113.527 2.472.508 3.433a.422.422 0 0 1-.426.426H8.93a.424.424 0 0 1-.426-.426c0-.734.187-1.722.46-2.52.141-.398.302-.75.47-1 .168-.245.343-.378.488-.378.039 0 .078.02.129.066.047.047.097.121.148.211.102.176.203.426.309.676.11.246.226.5.37.695.142.192.317.336.532.336.121 0 .223-.07.305-.175.082-.106.148-.247.21-.41.13-.333.235-.766.36-1.2.125-.433.262-.863.442-1.18.183-.316.39-.507.668-.507zm0 0" fill="#212121"/></svg>
